icons/mobile/24/svg/sparkle-24.svg

<svg width="24" height="24" viewBox="0 0 24 24" fill="none" xmlns="http://www.w3.org/2000/svg">
<path d="M5.02889 16.3159C5.20488 15.8939 5.79622 15.8939 5.97225 16.3159C6.00624 16.3958 6.03792 16.478 6.06991 16.562C6.17284 16.8338 6.25204 17.0916 6.31502 17.3305C6.36202 17.5085 6.50618 17.6409 6.68416 17.6879C6.89116 17.7419 7.11044 17.809 7.33944 17.892C7.45735 17.935 7.57133 17.9789 7.68026 18.0248C8.10624 18.2038 8.10918 18.7951 7.68319 18.9741C7.58329 19.016 7.48147 19.0572 7.37459 19.0961C7.1316 19.1851 6.8992 19.2559 6.68221 19.3129C6.50521 19.3589 6.36102 19.4904 6.31502 19.6684C6.24807 19.9232 6.16226 20.1999 6.0494 20.4916C6.0244 20.5576 5.99727 20.623 5.97127 20.686C5.79627 21.105 5.20487 21.105 5.02987 20.686C5.00388 20.623 4.97773 20.5576 4.95174 20.4916C4.83888 20.1999 4.75307 19.9232 4.68612 19.6684C4.64012 19.4914 4.49593 19.3599 4.31893 19.3129C4.10111 19.256 3.8693 19.185 3.62752 19.0961C3.52052 19.0561 3.41695 19.0161 3.31795 18.9741C2.8932 18.795 2.89517 18.2029 3.32088 18.0248C3.42988 17.9788 3.54468 17.935 3.66268 17.892C3.89146 17.8091 4.11016 17.7419 4.31698 17.6879C4.49498 17.6419 4.63912 17.5095 4.68612 17.3305C4.7491 17.0906 4.82929 16.8328 4.93123 16.562C4.96323 16.478 4.9959 16.3958 5.02889 16.3159Z" fill="black"/>
<path fill-rule="evenodd" clip-rule="evenodd" d="M12.4439 5.37543C13.2096 3.54032 15.7908 3.54183 16.5572 5.37445C16.6486 5.59366 16.7399 5.82199 16.8277 6.05512C17.1104 6.80501 17.3306 7.51873 17.5035 8.17914L17.5211 8.2309C17.571 8.34962 17.6839 8.45685 17.8551 8.50141C18.4271 8.65067 19.0343 8.83544 19.6676 9.06488C19.9965 9.18364 20.3116 9.30871 20.6119 9.43402H20.6138C22.4474 10.2032 22.4733 12.7848 20.6207 13.562L20.6197 13.5629C20.3461 13.6774 20.0615 13.7893 19.7672 13.8979L19.7662 13.8989C19.0965 14.1451 18.4544 14.3418 17.8531 14.4995C17.6575 14.5508 17.5396 14.6821 17.5045 14.8159C17.3208 15.5202 17.0819 16.286 16.7701 17.0932V17.0952C16.6999 17.2758 16.6272 17.4542 16.5543 17.6293V17.6313C15.7907 19.4553 13.2097 19.4568 12.4469 17.6303L12.4459 17.6293C12.3734 17.4554 12.302 17.2769 12.231 17.0932L12.2301 17.0922C11.9195 16.2857 11.6811 15.5202 11.4967 14.8168C11.4616 14.6831 11.3446 14.5508 11.149 14.4995C10.5482 14.342 9.90564 14.1455 9.23397 13.8979C8.93965 13.7893 8.65503 13.6764 8.38143 13.562C6.52876 12.7848 6.55375 10.2032 8.38729 9.43402C8.68789 9.30817 9.00435 9.18339 9.3326 9.06488C9.96579 8.83542 10.5721 8.65069 11.1441 8.50141C11.3424 8.4494 11.4615 8.31648 11.4976 8.17914C11.6699 7.51751 11.8913 6.80465 12.1734 6.05609C12.2618 5.82056 12.3529 5.59361 12.4439 5.37543ZM14.943 6.04926C14.7751 5.64846 14.2245 5.6506 14.0582 6.04926C13.9734 6.25252 13.8906 6.4595 13.8111 6.67133V6.67328C13.5517 7.36165 13.3486 8.01598 13.191 8.62152L13.19 8.62348C12.9779 9.43167 12.3348 9.99885 11.5875 10.1948C11.0642 10.3313 10.5082 10.5002 9.9283 10.7104L9.92733 10.7114C9.77854 10.7651 9.6318 10.8201 9.48787 10.8764L9.06405 11.0483C8.64319 11.2252 8.65445 11.7778 9.05526 11.9477C9.30738 12.0531 9.57006 12.1569 9.83944 12.2563C10.4536 12.4827 11.0412 12.6626 11.5924 12.8071C12.3363 13.0018 12.979 13.5665 13.19 14.3745C13.3595 15.0206 13.5787 15.7236 13.8639 16.4643C13.9286 16.6319 13.9948 16.7951 14.0621 16.9565C14.2254 17.3467 14.7738 17.3484 14.939 16.9565L15.1383 16.4614C15.4241 15.7214 15.6429 15.0195 15.8111 14.3745C16.022 13.5667 16.6652 13.002 17.4088 12.8071L17.8287 12.6918C18.2551 12.5696 18.7011 12.4256 19.1617 12.2563L19.5592 12.1039L19.9449 11.9477C20.3465 11.7782 20.3582 11.2253 19.9371 11.0483C19.6579 10.9318 19.3703 10.8184 19.0738 10.7114L19.0728 10.7104C18.4928 10.5002 17.9371 10.3313 17.4137 10.1948C16.6643 9.99941 16.0229 9.43005 15.8111 8.62348L15.8101 8.6225C15.6512 8.01537 15.4491 7.36079 15.19 6.67328L14.943 6.04926Z" fill="black"/>
<path d="M5.02889 3.31586C5.20488 2.89388 5.79622 2.89392 5.97225 3.31586C6.00624 3.39583 6.03792 3.47799 6.06991 3.56195C6.17284 3.83378 6.25204 4.09164 6.31502 4.33051C6.36202 4.50849 6.50618 4.64092 6.68416 4.68793C6.89116 4.74193 7.11044 4.80903 7.33944 4.89203C7.45735 4.935 7.57133 4.97887 7.68026 5.02484C8.10624 5.20385 8.10918 5.79506 7.68319 5.97406C7.58329 6.01602 7.48147 6.05717 7.37459 6.09613C7.1316 6.18513 6.8992 6.25593 6.68221 6.31293C6.50521 6.35893 6.36102 6.4904 6.31502 6.6684C6.24807 6.92317 6.16226 7.19994 6.0494 7.49164C6.0244 7.55764 5.99727 7.62298 5.97127 7.68598C5.79627 8.10498 5.20487 8.10498 5.02987 7.68598C5.00388 7.62301 4.97773 7.55761 4.95174 7.49164C4.83888 7.19995 4.75307 6.92316 4.68612 6.6684C4.64012 6.4914 4.49593 6.35993 4.31893 6.31293C4.10111 6.25597 3.8693 6.18504 3.62752 6.09613C3.52052 6.05613 3.41695 6.01606 3.31795 5.97406C2.8932 5.79501 2.89517 5.20294 3.32088 5.02484C3.42988 4.97884 3.54468 4.93503 3.66268 4.89203C3.89146 4.80912 4.11016 4.74189 4.31698 4.68793C4.49498 4.64193 4.63912 4.50951 4.68612 4.33051C4.7491 4.09062 4.82929 3.8328 4.93123 3.56195C4.96323 3.47797 4.9959 3.39585 5.02889 3.31586Z" fill="black"/>
</svg>

<!-- This Source Code Form is subject to the terms of the Mozilla Public
   - License, v. 2.0. If a copy of the MPL was not distributed with this
   - file, You can obtain one at http://mozilla.org/MPL/2.0/. -->
<svg xmlns="http://www.w3.org/2000/svg" width="24" height="24" fill="none" viewBox="0 0 24 24">
    <path fill="#000" d="M5.029 16.316a.51.51 0 0 1 .943 0q.05.12.098.246.152.41.245.768a.51.51 0 0 0 .37.358 7.4 7.4 0 0 1 .995.337c.426.179.43.77.003.95q-.15.062-.308.121a8 8 0 0 1-.693.217.5.5 0 0 0-.367.355 8 8 0 0 1-.266.824q-.038.1-.078.194a.51.51 0 0 1-.941 0l-.078-.194a8 8 0 0 1-.266-.824.5.5 0 0 0-.367-.355 7.5 7.5 0 0 1-1.001-.339.513.513 0 0 1 .003-.95 7.4 7.4 0 0 1 .996-.336.5.5 0 0 0 .37-.357 8 8 0 0 1 .342-1.015" />
    <path fill="#000" fill-rule="evenodd" d="M12.444 5.375c.766-1.835 3.347-1.833 4.113 0a21 21 0 0 1 .947 2.804l.017.052a.48.48 0 0 0 .334.27 21 21 0 0 1 2.757.933h.002c1.833.77 1.86 3.35.007 4.128h-.001q-.412.173-.853.336c-.67.247-1.313.444-1.914.601-.196.052-.313.183-.349.317-.183.704-.422 1.47-.734 2.277v.002q-.106.271-.216.534v.002c-.763 1.824-3.344 1.826-4.107 0l-.001-.002a21.5 21.5 0 0 1-.95-2.812.47.47 0 0 0-.347-.318 21 21 0 0 1-2.768-.937c-1.852-.777-1.827-3.359.006-4.128a20 20 0 0 1 2.757-.933.47.47 0 0 0 .354-.322 21 21 0 0 1 .946-2.804m2.499.674a.476.476 0 0 0-.885 0q-.127.305-.247.622v.002c-.26.689-.462 1.343-.62 1.949l-.001.001c-.212.809-.855 1.376-1.602 1.572a19 19 0 0 0-1.66.515v.001q-.224.082-.44.165l-.424.172a.482.482 0 0 0-.009.9q.38.159.784.308a19 19 0 0 0 1.753.551c.744.195 1.387.76 1.598 1.567a20 20 0 0 0 .872 2.582c.163.39.712.392.877 0l.2-.495c.285-.74.504-1.441.672-2.086.211-.808.854-1.373 1.598-1.568l.42-.115a19 19 0 0 0 1.333-.436l.397-.152.386-.156a.482.482 0 0 0-.008-.9 19 19 0 0 0-.863-.337h-.001a19 19 0 0 0-1.66-.516c-.749-.196-1.39-.765-1.602-1.572a20 20 0 0 0-.621-1.95z" clip-rule="evenodd" />
    <path fill="#000" d="M5.029 3.316a.51.51 0 0 1 .943 0q.05.12.098.246.152.41.245.769a.51.51 0 0 0 .37.357 7.4 7.4 0 0 1 .995.337c.426.179.43.77.003.95q-.15.062-.308.121a8 8 0 0 1-.693.217.5.5 0 0 0-.367.355 8 8 0 0 1-.266.824q-.038.1-.078.194a.51.51 0 0 1-.941 0l-.078-.194a8 8 0 0 1-.266-.824.5.5 0 0 0-.367-.355 7.5 7.5 0 0 1-1.001-.339.513.513 0 0 1 .003-.95 7.4 7.4 0 0 1 .996-.336.5.5 0 0 0 .37-.357 8 8 0 0 1 .342-1.015" />
</svg>
